overrides/.icons/spell/lv3.svg

<?xml version="1.0" encoding="UTF-8" standalone="no"?>
<svg
   viewBox="0 0 24 24"
   version="1.1"
   id="svg1"
   sodipodi:docname="level-3.svg"
   inkscape:version="1.3.2 (091e20e, 2023-11-25, custom)"
   xmlns:inkscape="http://www.inkscape.org/namespaces/inkscape"
   xmlns:sodipodi="http://sodipodi.sourceforge.net/DTD/sodipodi-0.dtd"
   xmlns="http://www.w3.org/2000/svg"
   xmlns:svg="http://www.w3.org/2000/svg">
  <defs
     id="defs1" />
  <sodipodi:namedview
     id="namedview1"
     pagecolor="#ffffff"
     bordercolor="#666666"
     borderopacity="1.0"
     inkscape:showpageshadow="2"
     inkscape:pageopacity="0.0"
     inkscape:pagecheckerboard="0"
     inkscape:deskcolor="#d1d1d1"
     inkscape:zoom="11.1875"
     inkscape:cx="5.0055866"
     inkscape:cy="11.039106"
     inkscape:window-width="1360"
     inkscape:window-height="715"
     inkscape:window-x="-8"
     inkscape:window-y="-8"
     inkscape:window-maximized="1"
     inkscape:current-layer="svg1" />
  <path
     d="M9 7v2H8v6h1v2H5v-2h1V9H5V7h4m5 0v2h-1v6h1v2h-4v-2h1V9h-1V7h4m5 0v2h-1v6h1v2h-4v-2h1V9h-1V7h4Z"
     id="path1" />
  <path
     sodipodi:type="star"
     style="paint-order:stroke markers fill;fill:none;stroke-width:1.16873769;stroke-dasharray:none"
     id="path2"
     inkscape:flatsided="true"
     sodipodi:sides="6"
     sodipodi:cx="-19.396648"
     sodipodi:cy="-2.5921788"
     sodipodi:r1="8.4482279"
     sodipodi:r2="7.31638"
     sodipodi:arg1="0.52359878"
     sodipodi:arg2="1.0471976"
     inkscape:rounded="0.03"
     inkscape:randomized="0"
     d="m -12.080268,1.6319352 c -0.126724,0.2194914 -7.062934,4.2241139 -7.31638,4.2241139 -0.253447,0 -7.189657,-4.0046226 -7.31638,-4.224114 -0.126724,-0.2194914 -0.126724,-8.2287365 0,-8.4482279 0.126723,-0.2194914 7.062933,-4.2241142 7.31638,-4.2241142 0.253446,0 7.189656,4.0046229 7.31638,4.2241143 0.126723,0.2194914 0.126723,8.2287365 0,8.4482279 z"
     transform="matrix(1.1863998,0,0,1.1836802,35.01218,15.068311)" />
  <path
     id="rect1"
     style="fill-opacity:1;-inkscape-stroke:none;paint-order:stroke markers fill"
     d="M 4.5800781 2 C 3.1679885 2 2 3.1679879 2 4.5800781 L 2 5.3398438 L 4 5.3398438 L 4 4.5800781 C 4 4.2413913 4.2413915 4 4.5800781 4 L 19.419922 4 C 19.758609 4 20 4.2413916 20 4.5800781 L 20 5.3398438 L 22 5.3398438 L 22 4.5800781 C 22 3.1679876 20.832011 2 19.419922 2 L 4.5800781 2 z M 2 18.660156 L 2 19.419922 C 2 20.832011 3.1679875 22 4.5800781 22 L 19.419922 22 C 20.832012 22 22 20.832012 22 19.419922 L 22 18.660156 L 20 18.660156 L 20 19.419922 C 20 19.758608 19.758608 20 19.419922 20 L 4.5800781 20 C 4.2413915 20 4 19.758609 4 19.419922 L 4 18.660156 L 2 18.660156 z " />
</svg>

<?xml version="1.0" encoding="UTF-8"?>
<svg id="svg1" version="1.1" viewBox="0 0 24 24" xmlns="http://www.w3.org/2000/svg">
 <path id="path1" d="M9 7v2H8v6h1v2H5v-2h1V9H5V7h4m5 0v2h-1v6h1v2h-4v-2h1V9h-1V7h4m5 0v2h-1v6h1v2h-4v-2h1V9h-1V7h4Z"/>
 <path id="path2" transform="matrix(1.1864 0 0 1.1837 35.012 15.068)" d="m-12.08 1.6319c-0.12672 0.21949-7.0629 4.2241-7.3164 4.2241-0.25345 0-7.1897-4.0046-7.3164-4.2241-0.12672-0.21949-0.12672-8.2287 0-8.4482 0.12672-0.21949 7.0629-4.2241 7.3164-4.2241 0.25345 0 7.1897 4.0046 7.3164 4.2241 0.12672 0.21949 0.12672 8.2287 0 8.4482z" fill="none" stroke-width="1.1687" style="paint-order:stroke markers fill"/>
 <path id="rect1" d="m4.5801 2c-1.4121 0-2.5801 1.168-2.5801 2.5801v0.75977h2v-0.75977c0-0.33869 0.24139-0.58008 0.58008-0.58008h14.84c0.33869 0 0.58008 0.24139 0.58008 0.58008v0.75977h2v-0.75977c0-1.4121-1.168-2.5801-2.5801-2.5801h-14.84zm-2.5801 16.66v0.75977c0 1.4121 1.168 2.5801 2.5801 2.5801h14.84c1.4121 0 2.5801-1.168 2.5801-2.5801v-0.75977h-2v0.75977c0 0.33869-0.24139 0.58008-0.58008 0.58008h-14.84c-0.33869 0-0.58008-0.24139-0.58008-0.58008v-0.75977h-2z" style="-inkscape-stroke:none;paint-order:stroke markers fill"/>
</svg>
